svg/emoji_u1f97a.svg

<svg xmlns="http://www.w3.org/2000/svg" width="128" height="128"><path fill="none" d="M.06 0h127.99v128H.06z"/><path d="M63.89 9.64C1.58 9.64.1 79.5.1 93.33c0 13.83 28.56 25.03 63.79 25.03 35.24 0 63.79-11.21 63.79-25.03 0-13.83-1.47-83.69-63.79-83.69z" fill="#fcc21b"/><path d="M63.89 79.09c-14.13 0-22.18 8.14-22.52 8.48a3.254 3.254 0 0 0 4.67 4.53c.25-.25 6.58-6.51 17.85-6.51 11.27 0 17.6 6.25 17.87 6.52a3.26 3.26 0 0 0 4.59.04 3.238 3.238 0 0 0 .06-4.58c-.34-.35-8.39-8.48-22.52-8.48z" fill="#2f2f2f"/><path d="M34.437 75.367c-11.127.1-20.246-10.581-20.37-23.84-.124-13.307 8.797-24.161 19.924-24.26 11.102-.1 20.246 10.581 20.37 23.889.124 13.283-8.797 24.112-19.924 24.211z" fill="#fff"/><path d="M34.404 71.799c-9.476.084-17.242-9.012-17.348-20.303-.105-11.333 7.492-20.576 16.968-20.66 9.455-.085 17.242 9.01 17.348 20.344.105 11.312-7.492 20.534-16.968 20.619z" fill="#2f2f2f"/><path d="M42.278 51.088c-3.715 2.697-9.337 1.291-12.553-3.134-3.227-4.442-2.828-10.225.887-12.923 3.707-2.691 9.337-1.291 12.564 3.15 3.222 4.434 2.817 10.21-.898 12.907zM29.035 67.306c-2.16 1.159-5.03.01-6.412-2.562-1.387-2.581-.759-5.61 1.4-6.77 2.154-1.155 5.03-.01 6.417 2.572 1.384 2.577.754 5.602-1.405 6.76z" fill="#fff"/><g><path d="M94.01 75.367c-11.128.1-20.247-10.581-20.371-23.84-.124-13.307 8.797-24.161 19.924-24.26 11.102-.1 20.246 10.581 20.37 23.889.124 13.283-8.797 24.112-19.924 24.211z" fill="#fff"/><path d="M93.976 71.799c-9.476.084-17.242-9.012-17.348-20.303-.105-11.333 7.492-20.576 16.968-20.66 9.455-.085 17.242 9.01 17.348 20.344.105 11.312-7.492 20.534-16.968 20.619z" fill="#2f2f2f"/><path d="M101.85 51.088c-3.715 2.697-9.337 1.291-12.552-3.134-3.228-4.442-2.83-10.225.886-12.923 3.707-2.691 9.337-1.291 12.564 3.15 3.222 4.434 2.817 10.21-.898 12.907zM88.607 67.306c-2.16 1.159-5.03.01-6.412-2.562-1.387-2.581-.759-5.61 1.4-6.77 2.155-1.155 5.03-.01 6.417 2.572 1.384 2.577.754 5.602-1.405 6.76z" fill="#fff"/></g></svg>

<?xml version="1.0" encoding="UTF-8" standalone="no"?>
<!DOCTYPE svg PUBLIC "-//W3C//DTD SVG 1.1//EN" "http://www.w3.org/Graphics/SVG/1.1/DTD/svg11.dtd">
<svg width="100%" height="100%" viewBox="0 0 128 128" version="1.1" xmlns="http://www.w3.org/2000/svg" xmlns:xlink="http://www.w3.org/1999/xlink" xml:space="preserve" xmlns:serif="http://www.serif.com/" style="fill-rule:evenodd;clip-rule:evenodd;stroke-linejoin:round;stroke-miterlimit:2;">
    <rect x="0.06" y="0" width="127.99" height="128" style="fill:none;fill-rule:nonzero;"/>
    <path d="M63.89,9.64C1.58,9.64 0.1,79.5 0.1,93.33C0.1,107.16 28.66,118.36 63.89,118.36C99.13,118.36 127.68,107.15 127.68,93.33C127.68,79.5 126.21,9.64 63.89,9.64Z" style="fill:rgb(252,194,27);fill-rule:nonzero;"/>
    <path d="M63.89,79.09C49.76,79.09 41.71,87.23 41.37,87.57C40.814,88.171 40.505,88.96 40.505,89.779C40.505,91.564 41.974,93.033 43.759,93.033C44.612,93.033 45.432,92.698 46.04,92.1C46.29,91.85 52.62,85.59 63.89,85.59C75.16,85.59 81.49,91.84 81.76,92.11C83.011,93.372 85.077,93.39 86.35,92.15C86.976,91.541 87.329,90.703 87.329,89.83C87.329,88.986 86.999,88.174 86.41,87.57C86.07,87.22 78.02,79.09 63.89,79.09Z" style="fill:rgb(47,47,47);fill-rule:nonzero;"/>
    <g transform="matrix(1,0,0,0.859416,0,7.21433)">
        <path d="M94.01,75.367C82.882,75.467 73.763,64.786 73.639,51.527C73.515,38.22 82.436,27.366 93.563,27.267C104.665,27.167 113.809,37.848 113.933,51.156C114.057,64.439 105.136,75.268 94.009,75.367L94.01,75.367Z" style="fill:white;fill-rule:nonzero;"/>
        <g transform="matrix(0.932451,0,0,0.908955,6.33513,4.67222)">
            <path d="M93.976,71.799C84.5,71.883 76.734,62.787 76.628,51.496C76.523,40.163 84.12,30.92 93.596,30.836C103.051,30.751 110.838,39.846 110.944,51.18C111.049,62.492 103.452,71.714 93.976,71.799Z" style="fill:rgb(47,47,47);fill-rule:nonzero;"/>
        </g>
        <g transform="matrix(0.932451,0,0,0.908955,6.33513,4.67222)">
            <path d="M101.85,51.088C98.135,53.785 92.513,52.379 89.298,47.954C86.07,43.512 86.468,37.729 90.184,35.031C93.891,32.34 99.521,33.74 102.748,38.181C105.97,42.615 105.565,48.391 101.85,51.088ZM88.607,67.306C86.447,68.465 83.577,67.316 82.195,64.744C80.808,62.163 81.436,59.134 83.595,57.974C85.75,56.819 88.625,57.964 90.012,60.546C91.396,63.123 90.766,66.148 88.607,67.306Z" style="fill:white;fill-rule:nonzero;"/>
        </g>
    </g>
    <g id="Ebene1" transform="matrix(1,0,0,0.859416,0,7.21433)">
        <path d="M34.437,75.367C23.31,75.467 14.191,64.786 14.067,51.527C13.943,38.22 22.864,27.366 33.991,27.267C45.093,27.167 54.237,37.848 54.361,51.156C54.485,64.439 45.564,75.268 34.437,75.367Z" style="fill:white;fill-rule:nonzero;"/>
        <g transform="matrix(0.932451,0,0,0.908955,2.31112,4.67222)">
            <path d="M34.404,71.799C24.928,71.883 17.162,62.787 17.056,51.496C16.951,40.163 24.548,30.92 34.024,30.836C43.479,30.751 51.266,39.846 51.372,51.18C51.477,62.492 43.88,71.714 34.404,71.799Z" style="fill:rgb(47,47,47);fill-rule:nonzero;"/>
        </g>
        <g transform="matrix(0.932451,0,0,0.908955,2.31112,4.67222)">
            <path d="M42.278,51.088C38.563,53.785 32.941,52.379 29.725,47.954C26.498,43.512 26.897,37.729 30.612,35.031C34.319,32.34 39.949,33.74 43.176,38.181C46.398,42.615 45.993,48.391 42.278,51.088ZM29.035,67.306C26.875,68.465 24.005,67.316 22.623,64.744C21.236,62.163 21.864,59.134 24.023,57.974C26.177,56.819 29.053,57.964 30.44,60.546C31.824,63.123 31.194,66.148 29.035,67.306Z" style="fill:white;fill-rule:nonzero;"/>
        </g>
    </g>
</svg>
